assets/images/svg/svg-clipboard.svg

<svg width="24" height="24" viewBox="0 0 24 24" fill="none" xmlns="http://www.w3.org/2000/svg">
<path d="M8 2C10.3278 2 14.1333 2 16.6021 2C17.4408 2 17.8601 2 18.181 2.16349C18.4632 2.3073 18.6927 2.53677 18.8365 2.81901C19 3.13988 19 3.55992 19 4.4L19 18.5M3.70295 17.7029L7.29706 21.2971C7.55648 21.5565 7.6862 21.6862 7.83757 21.779C7.97178 21.8612 8.1181 21.9218 8.27115 21.9586C8.44378 22 8.62723 22 8.99411 22L13.6 22C14.4401 22 14.8601 22 15.181 21.8365C15.4632 21.6927 15.6927 21.4632 15.8365 21.181C16 20.8601 16 20.4401 16 19.6L16 7.4C16 6.55992 16 6.13988 15.8365 5.81901C15.6927 5.53677 15.4632 5.3073 15.181 5.16349C14.8601 5 14.4401 5 13.6 5L5.4 5C4.55992 5 4.13989 5 3.81902 5.16349C3.53677 5.3073 3.3073 5.53677 3.16349 5.81901C3 6.13988 3 6.55992 3 7.4L3 16.0059C3 16.3728 3 16.5562 3.04145 16.7288C3.07819 16.8819 3.1388 17.0282 3.22104 17.1624C3.3138 17.3138 3.44352 17.4435 3.70295 17.7029Z" stroke="white"/>
<path d="M8.5 21.5L8.5 17.9C8.5 17.0599 8.5 16.6399 8.33651 16.319C8.1927 16.0368 7.96323 15.8073 7.68099 15.6635C7.36012 15.5 6.94008 15.5 6.1 15.5L2.5 15.5" stroke="white"/>
</svg>

<svg width="24" height="24" fill="none" xmlns="http://www.w3.org/2000/svg">
  <path d="M8 2h8.602c.839 0 1.258 0 1.579.163a1.5 1.5 0 0 1 .655.656c.164.32.164.74.164 1.581v14.1m-15.297-.797 3.594 3.594c.26.26.39.39.54.482.135.082.281.143.434.18.173.041.356.041.723.041H13.6c.84 0 1.26 0 1.581-.163a1.5 1.5 0 0 0 .655-.656c.164-.32.164-.74.164-1.581V7.4c0-.84 0-1.26-.164-1.581a1.5 1.5 0 0 0-.655-.656C14.861 5 14.441 5 13.6 5H5.4c-.84 0-1.26 0-1.581.163a1.5 1.5 0 0 0-.656.656C3 6.139 3 6.559 3 7.4v8.606c0 .367 0 .55.041.723.037.153.098.3.18.433.093.152.223.282.482.54Z" stroke="#fff"/>
  <path d="M8.5 21.5v-3.6c0-.84 0-1.26-.163-1.581a1.5 1.5 0 0 0-.656-.655c-.32-.164-.74-.164-1.581-.164H2.5" stroke="#fff"/>
</svg>
